X: 4
T:Drummond Castle
M:6/8
L:1/8
S:AABB
R:Jig
O:James Hunter
B:The Fiddle Music of Scotland
K:Am
E|"Am"A&gt;BA a3|"Am"a&gt;ge "G"g3|"C"c2 c e&gt;dc|"G"B&gt;dg dBG|!
"Am"A&gt;BA a3|"Am"a&gt;ge "G"g3|"C"e&gt;ge "G"deg|"Em"edB "Am"A2 :||!
B|"C"c2 c c&gt;ec|"G"d2 d d&gt;ed|"Am"c2 c e&gt;dc|"G"B&gt;dg dBG|!
"C/Am"c2 c e&gt;dc|"G"d&gt;eg "F"a2 g|"C"e&gt;ge "G"deg|"Em"edB "Am"A2:||!

